dist/svg/collapse-left.svg

<!-- Generated by Trend Micro Style Portal -->
<svg version="1.1" xmlns="http://www.w3.org/2000/svg" width="16" height="16" viewBox="0 0 16 16">
  <title>collapse-left</title>
  <path fill="rgb(34,34,34)" d="M6.5 12.5l-4.5-4.5 4.5-4.5 1 1-3.5 3.5 3.5 3.5-1 1zM12.5 12.5l-4.5-4.5 4.5-4.5 1 1-3.5 3.5 3.5 3.5-1 1z"></path>
</svg>

<svg width="16" height="16" viewBox="0 0 16 16" fill="rgb(34, 34, 34)" xmlns="http://www.w3.org/2000/svg"><title>collapse-left</title><path d="M6.5 12.5L2 8L6.5 3.5L7.5 4.5L4 8L7.5 11.5L6.5 12.5ZM12.5 12.5L8 8L12.5 3.5L13.5 4.5L10 8L13.5 11.5L12.5 12.5Z" fill="rgb(34, 34, 34)" fill-opacity="1.00"/></svg>
